X: 16
T: The Crescent
%R: reel
B: "Twenty Four Country Dances for the Year 1781", Thomas Skillern, ed. p.8 #2
F: http://www.vwml.org/browse/browse-collections-dance-tune-books/browse-skillerns1781#
Z: 2014 John Chambers <jc:trillian.mit.edu>
M: C
L: 1/16
K: F
cB | A2f2 g2fe f2F2A2c2 | d3c BAGF GFED C2cB |\
A2f2 g2fe f2F2A2f2 | e2dc G2=B2 c4 C2 :|
|: AB |\
c3B ABcA B3A GABG | A3G FcBA GFED C2cB |\
A3G FGAF B3c defd | c2f2 g2fe f4 F2 :|
%%begintext align
%%   First Cu. Chassee & figure on Contrary
%% sides .| Chassee & figure on your own :|
%% 1st three Cu. Chassee & pas Rigadoon hands
%% 3 on the Sides :|. Chassee back again and
%% lead your Partner off in the 2ds place :|:
%%endtext

%%sep 1 1 500
%%sep 1 1 500
